X: 1
T: Polksa #7 i G
O: Sweden
R: hambo, polska
Z: 2009 John Chambers <jc:trillian.mit.edu>
S: handwritten notes from the 1970s
N: Also Norwegian
M: 3/4
L: 1/8
K: G
|: "G"B2 BD G>B | "C"e2 ed c>B | "D7"A2 AD F>A | "G"d2 dc B>A \
|  "G"G2 BD G>B | "C"~B2 cB A>G | "D7"F>G AD F>A | A2 "G"G4 :|
|: "G"G>B Bd d>g | "D7"g>f f2 f2- | "C"f>e ef g>e | "G"e>d dB G>B \
|  "C"d>c ~c2 e>c | "G"c>B ~B2 d>B | "D7"B>A AD F>A | A2 "G"G4 :|
